!!!COM: Schubert, Franz
!!!CNT: Deutscher
!!!TXO: Deutsch
!!!OTL: "Gefror'ne Thraenen"
!!!OPR: Winterreise
!!!LYR: Mu2ller, Wilhelm
!!!OPS: Opus 89
!!!ONM: No. 3
!!!ODT: 1827/
!!NB: Vocal melody only encoded.
**kern	**silbe
*clefG2	*
*k[b-e-a-d-]	*
*M2/2	*
*MM[langsam]	*
=7	=7
2r	.
4r	.
{4cc	{Ge-
=8	=8
4cc	fror'-
8b-	-ne
8a-	|
4a-	Trop-
4g	-fen
=9	=9
2a-	fal-
4f}	-len}
{8g	{von
8dd-	|
=10	=10
4cc	mei-
8b-	-nen
8a-	|
4a-	Wan-
4g	-gen
=11	=11
2a-}	ab:}
2r	.
=12	=12
{4dd-	{ob
8dd-	es
8dd-	mir
4dd-	denn
4dd-	ent-
=13	=13
(4dd-	-gan-
8cc	|
8b-)	|
4b-}	-gen,}
{4b-	{dass
=14	=14
4cc	ich
8b-	ge-
8a-	|
4cc	-wei-
4b-	-net
=15	=15
2a-}	hab'?}
4r	.
{4ee-	{dass
=16	=16
8ff	ich
8ee-	|
8dd-	ge-
8cc	|
4ee-	-wei-
4dd-	-net
=17	=17
2cc}	hab'?}
2r	.
=20	=20
2r	.
4r	.
{4d-	{Ei
=21	=21
8d-	Thra2-
8c	|
4c	-nen,
4r	.
8d-	mei-
8d-	-ne
=22	=22
8d-	Thra2-
8c	|
4c	-nen,
4r	.
4f	und
=23	=23
4.en	seid
8en	ihr
4.a-	gar
8a-	so
=24	=24
2g}	lau,}
{4c	{dass
8dn	ihr
8dn	er-
=25	=25
2e-	-starrt
4r	.
4f-	zu
=26	=26
8f-	Ei-
8e-	|
4e-	-se,
4r	.
4a-	wie
=27	=27
4.g	ku2h-
8g	-ler
4.cc-	Mor-
8cc-	-gen-
=28	=28
2b-}	-thau?}
2r	.
=29	=29
2r	.
4r	.
{4ccn	{Und
=30	=30
4dd-	dringt
8cc	doch
8b-	|
4b-	aus
4bn	der
=31	=31
(4.cc	Quel-
8a-)	|
8a-	-le
8cc	|
8cc	der
8ee-	|
=32	=32
8ee-	Brust
8dd-	|
8cc	so
8b-	|
4b-	glu2-
4bn	-hend
=33	=33
2cc}	heiss,}
4r	.
{4ee-	{als
=34	=34
8ee-	woll-
4an	|
8an	-tet
4.an	ihr
8an	zer-
=35	=35
(4.b-	-schmel-
8cc-)	|
4b-	-zen
4b-	des
=36	=36
4cc-	gan-
8cc-	-zen
8dd-	|
4ee-	Win-
8dd-	-ters
8cc-	|
=37	=37
2.b-}	Eis,}
{4ff	{des
=38	=38
8gg	gan-
8cc	|
8dd-	-zen
8ff	|
4a-	Win-
4g	-ters
=39	=39
2.cc}	Eis,}
{4cc	{ihr
=40	=40
4dd-	dringt
8cc	doch
8b-	|
4b-	aus
4bn	der
=41	=41
(4.cc	Quel-
8a-)	|
8a-	-le
8cc	|
8cc	der
8ee-	|
=42	=42
8ee-	Brust
8dd-	|
8cc	so
8b-	|
4b-	glu2-
4bn	-hend
=43	=43
2cc}	heiss,}
4r	.
{4ee-	{als
=44	=44
(8ee-	woll-
4an)	|
8an	-tet
4an	ihr
4an	zer-
=45	=45
(4.b-	-schmel-
8cc-)	|
4b-	-zen
4b-	des
=46	=46
4cc-	gan-
8cc-	-zen
8dd-	|
4ee-	Win
8dd-	-ters
8cc-	|
=47	=47
2.b-}	Eis,}
{4ff	{des
=48	=48
4ff	gan-
8ff	-zen
8gg	|
4.een	Win-
8een	-ters
=49	=49
2ff}	Eis.}
2r	.
*-	*-
